assets/icons/qvision/filter_6.svg

<svg xmlns="http://www.w3.org/2000/svg" height="24" viewBox="0 0 24 24" width="24"><path d="M0 0h24v24H0z" fill="none"/><path d="M3 5H1v16c0 1.1.9 2 2 2h16v-2H3V5zm18-4H7c-1.1 0-2 .9-2 2v14c0 1.1.9 2 2 2h14c1.1 0 2-.9 2-2V3c0-1.1-.9-2-2-2zm0 16H7V3h14v14zm-8-2h2c1.1 0 2-.89 2-2v-2c0-1.11-.9-2-2-2h-2V7h4V5h-4c-1.1 0-2 .89-2 2v6c0 1.11.9 2 2 2zm0-4h2v2h-2v-2z"/></svg>

<svg width="24" height="24" viewBox="0 0 24 24" fill="none" xmlns="http://www.w3.org/2000/svg">
<g clip-path="url(#clip0_147_3419)">
<path d="M3 5H1V21C1 22.1 1.9 23 3 23H19V21H3V5ZM21 1H7C5.9 1 5 1.9 5 3V17C5 18.1 5.9 19 7 19H21C22.1 19 23 18.1 23 17V3C23 1.9 22.1 1 21 1ZM21 17H7V3H21V17ZM13 15H15C16.1 15 17 14.11 17 13V11C17 9.89 16.1 9 15 9H13V7H17V5H13C11.9 5 11 5.89 11 7V13C11 14.11 11.9 15 13 15ZM13 11H15V13H13V11Z" fill="#323232"/>
</g>
<defs>
<clipPath id="clip0_147_3419">
<rect width="24" height="24" fill="white"/>
</clipPath>
</defs>
</svg>
